storage/app/icons/phosphoricons/bold/cross-bold.svg

<svg xmlns="http://www.w3.org/2000/svg" fill="currentColor" viewBox="0 0 256 256"><path d="M200 68h-36V32a20 20 0 0 0-20-20h-32a20 20 0 0 0-20 20v36H56a20 20 0 0 0-20 20v32a20 20 0 0 0 20 20h36v84a20 20 0 0 0 20 20h32a20 20 0 0 0 20-20v-84h36a20 20 0 0 0 20-20V88a20 20 0 0 0-20-20m-4 48h-44a12 12 0 0 0-12 12v92h-24v-92a12 12 0 0 0-12-12H60V92h44a12 12 0 0 0 12-12V36h24v44a12 12 0 0 0 12 12h44Z"/></svg>

<svg xmlns="http://www.w3.org/2000/svg" viewBox="0 0 256 256" fill="currentColor"><path d="M200,68H164V32a20,20,0,0,0-20-20H112A20,20,0,0,0,92,32V68H56A20,20,0,0,0,36,88v32a20,20,0,0,0,20,20H92v84a20,20,0,0,0,20,20h32a20,20,0,0,0,20-20V140h36a20,20,0,0,0,20-20V88A20,20,0,0,0,200,68Zm-4,48H152a12,12,0,0,0-12,12v92H116V128a12,12,0,0,0-12-12H60V92h44a12,12,0,0,0,12-12V36h24V80a12,12,0,0,0,12,12h44Z"/></svg>
